X: 32859
T: Porter
R: jig
M: 6/8
K: Dmajor
A|def f2f|edB A3|FGA A2A|Bcd A2A|def f2c|d2B A2G|FGA Bcd|e2c d2:|
|:d|AFA d2d|BGB d2d|cde f2f|edB A2A|def f2c|d2B A2G|FGA Bcd|e2c d2:|
|:d|(2AF A3|d3 d3|(2BG B3|d3 d3|(2cd e3|f3 f3|(2ed B3|A3 A3|def f2c|d2b A2G|FGA Bcd|e2c d2:|

